icons/space-16.svg

<svg width="16" height="16" viewBox="0 0 16 16" fill="none" xmlns="http://www.w3.org/2000/svg">
<path d="M0 13.25V2.75C0 1.7835 0.783502 1 1.75 1H5C5.55083 1 6.0699 1.25954 6.40039 1.7002L7.2998 2.90039C7.34702 2.96325 7.42138 3 7.5 3H14.25C15.2165 3 16 3.7835 16 4.75V8.3877C16 8.80191 15.6642 9.1377 15.25 9.1377C14.8358 9.1377 14.5 8.80191 14.5 8.3877V4.75C14.5 4.61193 14.3881 4.5 14.25 4.5H7.5C6.94917 4.5 6.4301 4.24046 6.09961 3.7998L5.2002 2.59961C5.15298 2.53675 5.07862 2.5 5 2.5H1.75C1.61193 2.5 1.5 2.61193 1.5 2.75V13.25C1.5 13.3881 1.61193 13.5 1.75 13.5H7.41309L7.48926 13.5039C7.86764 13.5421 8.16309 13.8615 8.16309 14.25C8.16309 14.6385 7.86764 14.9579 7.48926 14.9961L7.41309 15H1.75C0.783502 15 0 14.2165 0 13.25Z" fill="#59636E"/>
<path d="M12.265 9.15977C12.3446 8.94235 12.6521 8.94235 12.7317 9.15977L12.9693 9.80865C13.3464 10.8387 14.158 11.6503 15.1881 12.0274L15.8369 12.265C16.0544 12.3446 16.0544 12.6521 15.8369 12.7317L15.1881 12.9692C14.158 13.3463 13.3464 14.158 12.9693 15.188L12.7317 15.8369C12.6521 16.0543 12.3446 16.0543 12.265 15.8369L12.0275 15.188C11.6504 14.158 10.8387 13.3463 9.80871 12.9692L9.15983 12.7317C8.94241 12.6521 8.94241 12.3446 9.15983 12.265L9.80871 12.0274C10.8387 11.6503 11.6504 10.8387 12.0275 9.80865L12.265 9.15977Z" fill="#59636E"/>
</svg>

<svg xmlns="http://www.w3.org/2000/svg" width="16" height="16" viewBox="0 0 16 16"><path d="M0 13.25V2.75C0 1.784.784 1 1.75 1H5c.551 0 1.07.26 1.4.7l.9 1.2a.25.25 0 0 0 .2.1h6.75c.966 0 1.75.784 1.75 1.75v3.638a.75.75 0 0 1-1.5 0V4.75a.25.25 0 0 0-.25-.25H7.5a1.75 1.75 0 0 1-1.4-.7l-.9-1.2a.25.25 0 0 0-.2-.1H1.75a.25.25 0 0 0-.25.25v10.5c0 .138.112.25.25.25h5.663l.076.004a.75.75 0 0 1 0 1.492L7.413 15H1.75A1.75 1.75 0 0 1 0 13.25Z"/><path d="M12.265 9.16a.248.248 0 0 1 .467 0l.237.649a3.726 3.726 0 0 0 2.219 2.218l.649.238a.249.249 0 0 1 0 .467l-.649.237a3.728 3.728 0 0 0-2.219 2.219l-.237.649a.249.249 0 0 1-.467 0l-.238-.649a3.726 3.726 0 0 0-2.218-2.219l-.649-.237a.248.248 0 0 1 0-.467l.649-.238a3.725 3.725 0 0 0 2.218-2.218l.238-.649Z"/></svg>
